X:1
M:6/8
K:G
d2B B2A|G2B B2A|B2B A2G|F2E D2B|
d2B B2d|e2e B2d|e2e B2c|d2B A2B|
c2B B2d|e2e g2e|f2d c2d|d2B ABd|e2e e2e|
f2c B2c|A^GB c2c|A2A c2c|B2G A2A|B2c efe|d2e e2f|e3 e2f||
g2g f2a|g2e f2g|g3 a2f|e2e c2e|d2e dcB|G3 A3||
K:G
B2B d2e|d3 d2d|e2d cBA|A3 A2B|A2F G2A|B3 -B2B:|